svg/fluentui-system-icons/ic_fluent_tag_lock_accent_16_filled.svg

<svg width="16" height="16" viewBox="0 0 16 16" fill="none" xmlns="http://www.w3.org/2000/svg">
<path d="M6.64774 1.95405L1.88834 6.68214C1.29894 7.26766 1.29894 8.21561 1.88834 8.80113L5.19816 12.0892C5.68586 12.5737 6.42444 12.6585 7 12.3437V10C7 9.06808 7.63739 8.28503 8.5 8.06301V8C8.5 6.34314 9.84315 5 11.5 5C11.8434 5 12.1733 5.05769 12.4806 5.16392L12.4962 3.01081C12.5023 2.17888 11.8224 1.49651 10.9767 1.50001L7.7126 1.51355C7.31241 1.51521 6.92973 1.67391 6.64774 1.95405Z" fill="#212121"/>
</svg>

<svg xmlns="http://www.w3.org/2000/svg" width="16" height="16"><path d="m6.648 1.954-4.76 4.728a1.49 1.49 0 0 0 0 2.12l3.31 3.287c.488.485 1.226.57 1.802.255V10a2 2 0 0 1 1.5-1.937V8a3 3 0 0 1 3.98-2.836l.016-2.153a1.507 1.507 0 0 0-1.52-1.511l-3.263.014c-.4.001-.783.16-1.065.44Z"/></svg>
